src/img/decor/blog-bg-before.svg

<svg width="106" height="106" viewBox="0 0 106 106" fill="none" xmlns="http://www.w3.org/2000/svg">
<path fill-rule="evenodd" clip-rule="evenodd" d="M52.5838 5.31287C53.7767 5.31287 54.745 4.34708 54.745 3.15533C54.745 1.964 53.7767 0.997375 52.5838 0.997375C51.3896 0.997375 50.4222 1.964 50.4222 3.15533C50.4222 4.34708 51.3896 5.31287 52.5838 5.31287ZM52.5838 15.3812H52.5845C53.7773 15.3812 54.7456 16.3482 54.7456 17.5391C54.7456 18.7308 53.7773 19.697 52.5845 19.697H52.5838C51.3896 19.697 50.4222 18.7308 50.4222 17.5391C50.4222 16.3482 51.3896 15.3812 52.5838 15.3812ZM66.9918 15.3812C65.797 15.3812 64.8295 16.3482 64.8295 17.5391C64.8295 18.7308 65.797 19.697 66.9918 19.697C68.1847 19.697 69.1515 18.7308 69.1515 17.5391C69.1515 16.3482 68.1847 15.3812 66.9918 15.3812ZM64.8295 31.9237C64.8295 30.7312 65.797 29.7654 66.9918 29.7654C68.1847 29.7654 69.1515 30.7312 69.1515 31.9237C69.1515 33.1138 68.1847 34.0812 66.9918 34.0812C65.797 34.0812 64.8295 33.1138 64.8295 31.9237ZM79.2369 31.9237C79.2369 30.7312 80.2037 29.7654 81.3978 29.7654C82.5906 29.7654 83.559 30.7312 83.559 31.9237C83.559 33.1138 82.5906 34.0812 81.3978 34.0812C80.2037 34.0812 79.2369 33.1138 79.2369 31.9237ZM74.1946 36.958C73.0017 36.958 72.0341 37.9235 72.0341 39.1155C72.0341 40.3064 73.0017 41.2722 74.1946 41.2722C75.3873 41.2722 76.3549 40.3064 76.3549 39.1155C76.3549 37.9235 75.3873 36.958 74.1946 36.958ZM86.4401 39.1155C86.4401 37.9235 87.4077 36.958 88.6019 36.958C89.7933 36.958 90.763 37.9235 90.763 39.1155C90.763 40.3064 89.7933 41.2722 88.6019 41.2722C87.4077 41.2722 86.4401 40.3064 86.4401 39.1155ZM74.1946 22.5735C73.0017 22.5735 72.0341 23.5389 72.0341 24.7314C72.0341 25.9231 73.0017 26.8885 74.1946 26.8885C75.3873 26.8885 76.3549 25.9231 76.3549 24.7314C76.3549 23.5389 75.3873 22.5735 74.1946 22.5735ZM57.6254 24.7314C57.6254 23.5389 58.593 22.5735 59.7879 22.5735C60.9807 22.5735 61.9489 23.5389 61.9489 24.7314C61.9489 25.9231 60.9807 26.8885 59.7879 26.8885C58.593 26.8885 57.6254 25.9231 57.6254 24.7314ZM95.8053 58.5333C94.6111 58.5333 93.6435 59.4986 93.6435 60.6908C93.6435 61.8821 94.6111 62.8484 95.8053 62.8484C96.9982 62.8484 97.9649 61.8821 97.9649 60.6908C97.9649 59.4986 96.9982 58.5333 95.8053 58.5333ZM79.2369 60.6908C79.2369 59.4986 80.2037 58.5333 81.3978 58.5333C82.5906 58.5333 83.559 59.4986 83.559 60.6908C83.559 61.8821 82.5906 62.8484 81.3978 62.8484C80.2037 62.8484 79.2369 61.8821 79.2369 60.6908ZM66.9918 58.5333C65.797 58.5333 64.8295 59.4986 64.8295 60.6908C64.8295 61.8821 65.797 62.8484 66.9918 62.8484C68.1847 62.8484 69.1515 61.8821 69.1515 60.6908C69.1515 59.4986 68.1847 58.5333 66.9918 58.5333ZM93.6435 46.3062C93.6435 45.1157 94.6111 44.1487 95.8053 44.1487C96.9982 44.1487 97.9649 45.1157 97.9649 46.3062C97.9649 47.4987 96.9982 48.4645 95.8053 48.4645C94.6111 48.4645 93.6435 47.4987 93.6435 46.3062ZM81.3978 44.1487C80.2037 44.1487 79.2369 45.1157 79.2369 46.3062C79.2369 47.4987 80.2037 48.4645 81.3978 48.4645C82.5906 48.4645 83.559 47.4987 83.559 46.3062C83.559 45.1157 82.5906 44.1487 81.3978 44.1487ZM64.8295 46.3062C64.8295 45.1157 65.797 44.1487 66.9918 44.1487C68.1847 44.1487 69.1515 45.1157 69.1515 46.3062C69.1515 47.4987 68.1847 48.4645 66.9918 48.4645C65.797 48.4645 64.8295 47.4987 64.8295 46.3062ZM52.5845 44.1487H52.5838C51.3896 44.1487 50.4222 45.1157 50.4222 46.3062C50.4222 47.4987 51.3896 48.4645 52.5838 48.4645H52.5845C53.7773 48.4645 54.7456 47.4987 54.7456 46.3062C54.7456 45.1157 53.7773 44.1487 52.5845 44.1487ZM72.0341 67.8831C72.0341 66.6909 73.0017 65.7252 74.1946 65.7252C75.3873 65.7252 76.3549 66.6909 76.3549 67.8831C76.3549 69.0744 75.3873 70.0398 74.1946 70.0398C73.0017 70.0398 72.0341 69.0744 72.0341 67.8831ZM88.6019 65.7252C87.4077 65.7252 86.4401 66.6909 86.4401 67.8831C86.4401 69.0744 87.4077 70.0398 88.6019 70.0398C89.7933 70.0398 90.763 69.0744 90.763 67.8831C90.763 66.6909 89.7933 65.7252 88.6019 65.7252ZM72.0341 53.4985C72.0341 52.3068 73.0017 51.3414 74.1946 51.3414C75.3873 51.3414 76.3549 52.3068 76.3549 53.4985C76.3549 54.691 75.3873 55.6565 74.1946 55.6565C73.0017 55.6565 72.0341 54.691 72.0341 53.4985ZM90.7615 53.4985C90.7615 52.3068 89.7933 51.3414 88.6005 51.3414C87.4077 51.3414 86.4401 52.3068 86.4401 53.4985C86.4401 54.691 87.4077 55.6565 88.6005 55.6565C89.7933 55.6565 90.7615 54.691 90.7615 53.4985ZM100.846 53.4985C100.846 52.3068 101.814 51.3414 103.009 51.3414C104.199 51.3414 105.169 52.3068 105.169 53.4985C105.169 54.691 104.199 55.6565 103.009 55.6565C101.814 55.6565 100.846 54.691 100.846 53.4985ZM59.7879 51.3414C58.593 51.3414 57.6254 52.3068 57.6254 53.4985C57.6254 54.691 58.593 55.6565 59.7879 55.6565C60.9807 55.6565 61.9489 54.691 61.9489 53.4985C61.9489 52.3068 60.9807 51.3414 59.7879 51.3414ZM64.8295 89.4583C64.8295 88.2662 65.797 87.3008 66.9918 87.3008C68.1847 87.3008 69.1515 88.2662 69.1515 89.4583C69.1515 90.6496 68.1847 91.6158 66.9918 91.6158C65.797 91.6158 64.8295 90.6496 64.8295 89.4583ZM81.3978 72.9162C80.2037 72.9162 79.2369 73.8832 79.2369 75.0741C79.2369 76.2663 80.2037 77.2321 81.3978 77.2321C82.5906 77.2321 83.559 76.2663 83.559 75.0741C83.559 73.8832 82.5906 72.9162 81.3978 72.9162ZM64.8295 75.0741C64.8295 73.8832 65.797 72.9162 66.9918 72.9162C68.1847 72.9162 69.1515 73.8832 69.1515 75.0741C69.1515 76.2663 68.1847 77.2321 66.9918 77.2321C65.797 77.2321 64.8295 76.2663 64.8295 75.0741ZM52.5845 72.9162H52.5838C51.3896 72.9162 50.4222 73.8832 50.4222 75.0741C50.4222 76.2663 51.3896 77.2321 52.5838 77.2321H52.5845C53.7773 77.2321 54.7456 76.2663 54.7456 75.0741C54.7456 73.8832 53.7773 72.9162 52.5845 72.9162ZM72.0341 82.2664C72.0341 81.0743 73.0017 80.1082 74.1946 80.1082C75.3873 80.1082 76.3549 81.0743 76.3549 82.2664C76.3549 83.4578 75.3873 84.4248 74.1946 84.4248C73.0017 84.4248 72.0341 83.4578 72.0341 82.2664ZM59.7879 80.1082C58.593 80.1082 57.6254 81.0743 57.6254 82.2664C57.6254 83.4578 58.593 84.4248 59.7879 84.4248C60.9807 84.4248 61.9489 83.4578 61.9489 82.2664C61.9489 81.0743 60.9807 80.1082 59.7879 80.1082ZM52.5838 101.684H52.5845C53.7773 101.684 54.7456 102.65 54.7456 103.842C54.7456 105.033 53.7773 105.999 52.5845 105.999H52.5838C51.3896 105.999 50.4222 105.033 50.4222 103.842C50.4222 102.65 51.3896 101.684 52.5838 101.684ZM43.2195 10.3472C43.2195 9.15545 44.1869 8.19008 45.3799 8.19008C46.5732 8.19008 47.5415 9.15545 47.5415 10.3472C47.5415 11.5394 46.5732 12.5047 45.3799 12.5047C44.1869 12.5047 43.2195 11.5394 43.2195 10.3472ZM59.7879 12.5047C60.9794 12.5047 61.9483 11.5394 61.9483 10.3472C61.9483 9.15545 60.9794 8.19008 59.7879 8.19008C58.593 8.19008 57.6254 9.15545 57.6254 10.3472C57.6254 11.5394 58.593 12.5047 59.7879 12.5047ZM54.745 31.9237C54.745 33.1138 53.7767 34.0812 52.5838 34.0812C51.3896 34.0812 50.4222 33.1138 50.4222 31.9237C50.4222 30.7312 51.3896 29.7654 52.5838 29.7654C53.7767 29.7654 54.745 30.7312 54.745 31.9237ZM45.3799 36.958C44.1869 36.958 43.2195 37.9235 43.2195 39.1155C43.2195 40.3064 44.1869 41.2722 45.3799 41.2722C46.5732 41.2722 47.5415 40.3064 47.5415 39.1155C47.5415 37.9235 46.5732 36.958 45.3799 36.958ZM61.9483 39.1155C61.9483 40.3064 60.9794 41.2722 59.7879 41.2722C58.593 41.2722 57.6254 40.3064 57.6254 39.1155C57.6254 37.9235 58.593 36.958 59.7879 36.958C60.9794 36.958 61.9483 37.9235 61.9483 39.1155ZM45.3799 22.5735C44.1869 22.5735 43.2195 23.5389 43.2195 24.7314C43.2195 25.9231 44.1869 26.8885 45.3799 26.8885C46.5732 26.8885 47.5415 25.9231 47.5415 24.7314C47.5415 23.5389 46.5732 22.5735 45.3799 22.5735ZM30.9745 22.5735C31.2732 22.5735 31.556 22.6339 31.8153 22.743C32.5902 23.0696 33.1349 23.8369 33.1349 24.7314C33.1349 25.6259 32.5902 26.3924 31.8153 26.7193C31.556 26.8285 31.2732 26.8885 30.9745 26.8885H30.9738C30.079 26.8885 29.311 26.3456 28.9825 25.5712C28.873 25.3134 28.8127 25.0286 28.8127 24.7314C28.8127 24.4334 28.873 24.149 28.9825 23.8908C29.311 23.1168 30.079 22.5735 30.9738 22.5735H30.9745ZM52.5838 62.8484C53.7767 62.8484 54.745 61.8821 54.745 60.6908C54.745 59.4986 53.7767 58.5333 52.5838 58.5333C51.3896 58.5333 50.4222 59.4986 50.4222 60.6908C50.4222 61.8821 51.3896 62.8484 52.5838 62.8484ZM43.2195 67.8831C43.2195 66.6909 44.1869 65.7252 45.3799 65.7252C46.5732 65.7252 47.5415 66.6909 47.5415 67.8831C47.5415 69.0744 46.5732 70.0398 45.3799 70.0398C44.1869 70.0398 43.2195 69.0744 43.2195 67.8831ZM59.7879 70.0398C60.9794 70.0398 61.9483 69.0744 61.9483 67.8831C61.9483 66.6909 60.9794 65.7252 59.7879 65.7252C58.593 65.7252 57.6254 66.6909 57.6254 67.8831C57.6254 69.0744 58.593 70.0398 59.7879 70.0398ZM43.2195 53.4985C43.2195 52.3068 44.1869 51.3414 45.3799 51.3414C46.5732 51.3414 47.5415 52.3068 47.5415 53.4985C47.5415 54.691 46.5732 55.6565 45.3799 55.6565C44.1869 55.6565 43.2195 54.691 43.2195 53.4985ZM31.8153 51.511C31.556 51.4018 31.2732 51.3414 30.9745 51.3414H30.9738C30.079 51.3414 29.311 51.8839 28.9825 52.6587C28.873 52.9174 28.8127 53.2004 28.8127 53.4985C28.8127 53.7978 28.873 54.0804 28.9825 54.3386C29.311 55.1127 30.079 55.6565 30.9738 55.6565H30.9745C31.2732 55.6565 31.556 55.596 31.8153 55.4869C32.5902 55.159 33.1349 54.3918 33.1349 53.4985C33.1349 52.6052 32.5902 51.8384 31.8153 51.511ZM54.745 89.4583C54.745 90.6496 53.7767 91.6158 52.5838 91.6158C51.3896 91.6158 50.4222 90.6496 50.4222 89.4583C50.4222 88.2662 51.3896 87.3008 52.5838 87.3008C53.7767 87.3008 54.745 88.2662 54.745 89.4583ZM45.3799 94.4926C44.1869 94.4926 43.2195 95.4584 43.2195 96.6502C43.2195 97.8411 44.1869 98.807 45.3799 98.807C46.5732 98.807 47.5415 97.8411 47.5415 96.6502C47.5415 95.4584 46.5732 94.4926 45.3799 94.4926ZM57.6254 96.6502C57.6254 95.4584 58.593 94.4926 59.7879 94.4926C60.9794 94.4926 61.9483 95.4584 61.9483 96.6502C61.9483 97.8411 60.9794 98.807 59.7879 98.807C58.593 98.807 57.6254 97.8411 57.6254 96.6502ZM45.3799 80.1082C44.1869 80.1082 43.2195 81.0743 43.2195 82.2664C43.2195 83.4578 44.1869 84.4248 45.3799 84.4248C46.5732 84.4248 47.5415 83.4578 47.5415 82.2664C47.5415 81.0743 46.5732 80.1082 45.3799 80.1082ZM30.9745 80.1082C31.2732 80.1082 31.556 80.169 31.8153 80.278C32.5902 80.6051 33.1349 81.3724 33.1349 82.2664C33.1349 83.1605 32.5902 83.9277 31.8153 84.2544C31.556 84.3636 31.2732 84.4248 30.9745 84.4248H30.9738C30.079 84.4248 29.311 83.8807 28.9825 83.1054C28.873 82.8484 28.8127 82.5637 28.8127 82.2664C28.8127 81.9692 28.873 81.6841 28.9825 81.4263C29.311 80.6518 30.079 80.1082 30.9738 80.1082H30.9745ZM38.1786 29.7654H38.1779C37.2817 29.7654 36.5137 30.3091 36.186 31.0835C36.0771 31.3417 36.0168 31.624 36.0168 31.9237C36.0168 32.2205 36.0771 32.5044 36.186 32.763C36.5137 33.5375 37.2817 34.0812 38.1779 34.0812H38.1786C39.0726 34.0812 39.8399 33.5375 40.167 32.763C40.2772 32.5044 40.3375 32.2205 40.3375 31.9237C40.3375 31.624 40.2772 31.3417 40.167 31.0835C39.8399 30.3091 39.0726 29.7654 38.1786 29.7654ZM21.6095 31.9237C21.6095 30.7312 22.5763 29.7654 23.7698 29.7654C24.9633 29.7654 25.9315 30.7312 25.9315 31.9237C25.9315 33.1138 24.9633 34.0812 23.7698 34.0812C22.5763 34.0812 21.6095 33.1138 21.6095 31.9237ZM38.1786 15.3812H38.1779C37.2817 15.3812 36.5137 15.9249 36.186 16.6986C36.0771 16.9579 36.0168 17.2415 36.0168 17.5391C36.0168 17.8379 36.0771 18.1198 36.186 18.3793C36.5137 19.1529 37.2817 19.697 38.1779 19.697H38.1786C39.0726 19.697 39.8399 19.1529 40.167 18.3793C40.2772 18.1198 40.3375 17.8379 40.3375 17.5391C40.3375 17.2415 40.2772 16.9579 40.167 16.6986C39.8399 15.9249 39.0726 15.3812 38.1786 15.3812ZM14.4067 39.1155C14.4067 37.9235 15.3736 36.958 16.5664 36.958C17.7593 36.958 18.7282 37.9235 18.7282 39.1155C18.7282 40.3064 17.7593 41.2722 16.5664 41.2722C15.3736 41.2722 14.4067 40.3064 14.4067 39.1155ZM30.9745 36.958C29.7796 36.958 28.8127 37.9235 28.8127 39.1155C28.8127 40.3064 29.7796 41.2722 30.9745 41.2722C32.1659 41.2722 33.1349 40.3064 33.1349 39.1155C33.1349 37.9235 32.1659 36.958 30.9745 36.958ZM38.1779 58.5333H38.1786C39.0726 58.5333 39.8399 59.0765 40.167 59.851C40.2772 60.1081 40.3375 60.3936 40.3375 60.6908C40.3375 60.9884 40.2772 61.2724 40.167 61.5309C39.8399 62.3054 39.0726 62.8484 38.1786 62.8484H38.1779C37.2817 62.8484 36.5137 62.3054 36.186 61.5309C36.0771 61.2724 36.0168 60.9884 36.0168 60.6908C36.0168 60.3936 36.0771 60.1081 36.186 59.851C36.5137 59.0765 37.2817 58.5333 38.1779 58.5333ZM23.7698 58.5333C22.5763 58.5333 21.6095 59.4986 21.6095 60.6908C21.6095 61.8821 22.5763 62.8484 23.7698 62.8484C24.9633 62.8484 25.9315 61.8821 25.9315 60.6908C25.9315 59.4986 24.9633 58.5333 23.7698 58.5333ZM7.20206 60.6908C7.20206 59.4986 8.16963 58.5333 9.36383 58.5333C10.5574 58.5333 11.5241 59.4986 11.5241 60.6908C11.5241 61.8821 10.5574 62.8484 9.36383 62.8484C8.16963 62.8484 7.20206 61.8821 7.20206 60.6908ZM38.1786 44.1487H38.1779C37.2817 44.1487 36.5137 44.6924 36.186 45.4669C36.0771 45.7251 36.0168 46.009 36.0168 46.3062C36.0168 46.6042 36.0771 46.889 36.186 47.1463C36.5137 47.9208 37.2817 48.4645 38.1779 48.4645H38.1786C39.0726 48.4645 39.8399 47.9208 40.167 47.1463C40.2772 46.889 40.3375 46.6042 40.3375 46.3062C40.3375 46.009 40.2772 45.7251 40.167 45.4669C39.8399 44.6924 39.0726 44.1487 38.1786 44.1487ZM21.6095 46.3062C21.6095 45.1157 22.5763 44.1487 23.7698 44.1487C24.9633 44.1487 25.9315 45.1157 25.9315 46.3062C25.9315 47.4987 24.9633 48.4645 23.7698 48.4645C22.5763 48.4645 21.6095 47.4987 21.6095 46.3062ZM9.36383 44.1487C8.16963 44.1487 7.20206 45.1157 7.20206 46.3062C7.20206 47.4987 8.16963 48.4645 9.36383 48.4645C10.5574 48.4645 11.5241 47.4987 11.5241 46.3062C11.5241 45.1157 10.5574 44.1487 9.36383 44.1487ZM14.4067 67.8831C14.4067 66.6909 15.3736 65.7252 16.5664 65.7252C17.7593 65.7252 18.7282 66.6909 18.7282 67.8831C18.7282 69.0744 17.7593 70.0398 16.5664 70.0398C15.3736 70.0398 14.4067 69.0744 14.4067 67.8831ZM30.9745 65.7252C29.7796 65.7252 28.8127 66.6909 28.8127 67.8831C28.8127 69.0744 29.7796 70.0398 30.9745 70.0398C32.1659 70.0398 33.1349 69.0744 33.1349 67.8831C33.1349 66.6909 32.1659 65.7252 30.9745 65.7252ZM14.4067 53.4985C14.4067 52.3068 15.3736 51.3414 16.5664 51.3414C17.7593 51.3414 18.7282 52.3068 18.7282 53.4985C18.7282 54.691 17.7593 55.6565 16.5664 55.6565C15.3736 55.6565 14.4067 54.691 14.4067 53.4985ZM2.16049 51.3414C0.966296 51.3414 -0.001272 52.3068 -0.001272 53.4985C-0.001272 54.691 0.966296 55.6565 2.16049 55.6565C3.35331 55.6565 4.32226 54.691 4.32226 53.4985C4.32226 52.3068 3.35331 51.3414 2.16049 51.3414ZM38.1779 87.3008H38.1786C39.0726 87.3008 39.8399 87.8441 40.167 88.6182C40.2772 88.8767 40.3375 89.1599 40.3375 89.4583C40.3375 89.756 40.2772 90.0399 40.167 90.2981C39.8399 91.0726 39.0726 91.6158 38.1786 91.6158H38.1779C37.2817 91.6158 36.5137 91.0726 36.186 90.2981C36.0771 90.0399 36.0168 89.756 36.0168 89.4583C36.0168 89.1599 36.0771 88.8767 36.186 88.6182C36.5137 87.8441 37.2817 87.3008 38.1779 87.3008ZM38.1786 72.9162H38.1779C37.2817 72.9162 36.5137 73.4595 36.186 74.2345C36.0771 74.493 36.0168 74.7766 36.0168 75.0741C36.0168 75.3722 36.0771 75.6553 36.186 75.9147C36.5137 76.6887 37.2817 77.2321 38.1779 77.2321H38.1786C39.0726 77.2321 39.8399 76.6887 40.167 75.9147C40.2772 75.6553 40.3375 75.3722 40.3375 75.0741C40.3375 74.7766 40.2772 74.493 40.167 74.2345C39.8399 73.4595 39.0726 72.9162 38.1786 72.9162ZM21.6095 75.0741C21.6095 73.8832 22.5763 72.9162 23.7698 72.9162C24.9633 72.9162 25.9315 73.8832 25.9315 75.0741C25.9315 76.2663 24.9633 77.2321 23.7698 77.2321C22.5763 77.2321 21.6095 76.2663 21.6095 75.0741Z" fill="#34C3FF"/>
</svg>

<svg width="106" height="106" fill="none" xmlns="http://www.w3.org/2000/svg"><path fill-rule="evenodd" clip-rule="evenodd" d="M52.584 5.313a2.16 2.16 0 002.161-2.158A2.16 2.16 0 0052.584.997a2.16 2.16 0 00-2.162 2.158 2.16 2.16 0 002.162 2.158zm0 10.068a2.16 2.16 0 012.162 2.158 2.16 2.16 0 01-2.162 2.158 2.16 2.16 0 01-2.162-2.158 2.16 2.16 0 012.162-2.158zm14.408 0a2.16 2.16 0 00-2.163 2.158 2.16 2.16 0 002.163 2.158 2.159 2.159 0 100-4.316zm-2.163 16.543a2.16 2.16 0 012.163-2.159 2.159 2.159 0 110 4.316 2.16 2.16 0 01-2.163-2.157zm14.408 0a2.16 2.16 0 014.322 0 2.16 2.16 0 01-4.322 0zm-5.042 5.034a2.158 2.158 0 100 4.314 2.16 2.16 0 002.16-2.157 2.159 2.159 0 00-2.16-2.157zm12.245 2.157a2.16 2.16 0 012.162-2.157 2.16 2.16 0 012.161 2.157 2.16 2.16 0 01-2.161 2.157 2.16 2.16 0 01-2.162-2.157zM74.195 22.573a2.159 2.159 0 100 4.315 2.159 2.159 0 100-4.315zm-16.57 2.158a2.16 2.16 0 012.163-2.158 2.16 2.16 0 012.16 2.158 2.16 2.16 0 01-2.16 2.157 2.16 2.16 0 01-2.163-2.157zm38.18 33.802a2.16 2.16 0 00-2.162 2.158 2.16 2.16 0 002.162 2.157 2.159 2.159 0 100-4.315zm-16.568 2.158c0-1.192.967-2.158 2.16-2.158a2.16 2.16 0 012.162 2.158 2.16 2.16 0 01-2.161 2.157 2.159 2.159 0 01-2.161-2.157zm-12.245-2.158a2.16 2.16 0 00-2.163 2.158 2.16 2.16 0 002.163 2.157 2.159 2.159 0 100-4.315zm26.651-12.227a2.16 2.16 0 014.322 0 2.159 2.159 0 01-2.16 2.159 2.16 2.16 0 01-2.162-2.159zM81.398 44.15a2.159 2.159 0 100 4.316 2.16 2.16 0 002.161-2.159 2.16 2.16 0 00-2.161-2.157zm-16.569 2.157a2.16 2.16 0 012.163-2.157 2.159 2.159 0 110 4.316 2.16 2.16 0 01-2.163-2.159zM52.585 44.15h-.001a2.16 2.16 0 00-2.162 2.157 2.16 2.16 0 002.162 2.159 2.16 2.16 0 002.162-2.159 2.16 2.16 0 00-2.162-2.157zm19.45 23.734a2.16 2.16 0 012.16-2.158 2.16 2.16 0 012.16 2.158 2.159 2.159 0 01-2.16 2.157 2.159 2.159 0 01-2.16-2.157zm16.567-2.158a2.16 2.16 0 00-2.162 2.158 2.16 2.16 0 002.162 2.157 2.16 2.16 0 002.161-2.157 2.16 2.16 0 00-2.161-2.158zM72.034 53.5a2.16 2.16 0 012.16-2.158 2.159 2.159 0 110 4.316 2.159 2.159 0 01-2.16-2.158zm18.727 0a2.16 2.16 0 00-2.16-2.158 2.159 2.159 0 100 4.316 2.16 2.16 0 002.16-2.158zm10.085 0a2.16 2.16 0 012.163-2.158c1.19 0 2.16.966 2.16 2.157a2.16 2.16 0 01-2.16 2.159 2.16 2.16 0 01-2.163-2.158zm-41.058-2.16a2.16 2.16 0 00-2.163 2.157 2.16 2.16 0 002.163 2.159 2.16 2.16 0 002.16-2.158 2.16 2.16 0 00-2.16-2.158zm5.041 38.117a2.16 2.16 0 012.163-2.157 2.158 2.158 0 110 4.315 2.16 2.16 0 01-2.163-2.158zm16.569-16.542a2.159 2.159 0 100 4.316 2.16 2.16 0 002.161-2.158 2.16 2.16 0 00-2.161-2.158zm-16.569 2.158a2.16 2.16 0 014.323 0 2.159 2.159 0 01-2.16 2.158 2.16 2.16 0 01-2.163-2.158zm-12.244-2.158h-.001a2.16 2.16 0 00-2.162 2.158 2.16 2.16 0 002.162 2.158 2.16 2.16 0 002.162-2.158 2.16 2.16 0 00-2.162-2.158zm19.45 9.35a2.16 2.16 0 012.16-2.158 2.16 2.16 0 11-2.16 2.158zm-12.247-2.158a2.16 2.16 0 00-2.163 2.158 2.16 2.16 0 002.163 2.159 2.16 2.16 0 002.16-2.159 2.16 2.16 0 00-2.16-2.158zm-7.204 21.576a2.16 2.16 0 012.162 2.158 2.16 2.16 0 01-2.162 2.157 2.16 2.16 0 01-2.162-2.157 2.16 2.16 0 012.162-2.158zm-9.365-91.337c0-1.192.968-2.157 2.16-2.157a2.16 2.16 0 012.163 2.157 2.16 2.16 0 01-2.162 2.158 2.159 2.159 0 01-2.16-2.158zm16.569 2.158a2.16 2.16 0 002.16-2.158 2.16 2.16 0 00-2.16-2.157 2.16 2.16 0 00-2.163 2.157 2.16 2.16 0 002.163 2.158zm-5.043 19.419a2.16 2.16 0 01-4.323 0 2.16 2.16 0 012.162-2.159 2.16 2.16 0 012.161 2.159zm-9.365 5.034a2.158 2.158 0 100 4.314 2.16 2.16 0 002.161-2.157 2.16 2.16 0 00-2.161-2.157zm16.568 2.157a2.16 2.16 0 01-2.16 2.157 2.16 2.16 0 01-2.163-2.157 2.16 2.16 0 012.163-2.157 2.16 2.16 0 012.16 2.157zM45.38 22.573a2.159 2.159 0 100 4.315 2.16 2.16 0 002.162-2.157 2.16 2.16 0 00-2.162-2.158zm-14.406 0a2.158 2.158 0 110 4.316 2.162 2.162 0 01-2.161-2.158 2.163 2.163 0 012.161-2.158zm21.61 40.275a2.16 2.16 0 002.161-2.157 2.16 2.16 0 00-2.161-2.158 2.159 2.159 0 00-2.162 2.158 2.16 2.16 0 002.162 2.157zm-9.365 5.035a2.16 2.16 0 012.16-2.158 2.16 2.16 0 012.163 2.158 2.16 2.16 0 01-2.162 2.157 2.159 2.159 0 01-2.16-2.157zm16.569 2.157a2.16 2.16 0 002.16-2.157 2.16 2.16 0 00-2.16-2.158 2.16 2.16 0 00-2.163 2.158 2.16 2.16 0 002.163 2.157zM43.219 53.498a2.16 2.16 0 012.16-2.157 2.16 2.16 0 012.163 2.157 2.16 2.16 0 01-2.162 2.159 2.159 2.159 0 01-2.16-2.158zm-11.404-1.987a2.14 2.14 0 00-.84-.17h-.001a2.162 2.162 0 00-2.161 2.157 2.163 2.163 0 002.161 2.158 2.158 2.158 0 00.841-4.145zm22.93 37.947a2.16 2.16 0 01-2.161 2.158 2.16 2.16 0 01-2.162-2.158 2.16 2.16 0 012.162-2.157 2.16 2.16 0 012.161 2.157zm-9.365 5.035a2.158 2.158 0 100 4.314 2.16 2.16 0 002.161-2.157 2.16 2.16 0 00-2.161-2.157zm12.245 2.157a2.16 2.16 0 012.163-2.157 2.16 2.16 0 012.16 2.157 2.16 2.16 0 01-2.16 2.157 2.16 2.16 0 01-2.163-2.157zM45.38 80.108a2.16 2.16 0 100 4.317 2.16 2.16 0 002.161-2.159 2.16 2.16 0 00-2.161-2.158zm-14.406 0a2.16 2.16 0 012.16 2.158 2.158 2.158 0 01-2.16 2.159 2.163 2.163 0 01-2.161-2.159 2.163 2.163 0 012.161-2.158zm7.205-50.343h-.001a2.161 2.161 0 00-2.161 2.159 2.161 2.161 0 002.161 2.158 2.158 2.158 0 100-4.317zm-16.57 2.159a2.16 2.16 0 012.16-2.159 2.16 2.16 0 012.163 2.159 2.16 2.16 0 01-4.322 0zM38.18 15.38h-.001c-.896 0-1.664.544-1.992 1.318a2.164 2.164 0 000 1.68 2.162 2.162 0 001.992 1.318 2.16 2.16 0 000-4.316zM14.407 39.115c0-1.192.967-2.157 2.16-2.157a2.16 2.16 0 012.161 2.157 2.16 2.16 0 01-2.162 2.157 2.158 2.158 0 01-2.16-2.157zm16.567-2.157a2.159 2.159 0 00-2.161 2.157 2.16 2.16 0 002.162 2.157 2.16 2.16 0 002.16-2.157 2.16 2.16 0 00-2.16-2.157zm7.204 21.575a2.158 2.158 0 110 4.315 2.16 2.16 0 01-2.161-2.157 2.154 2.154 0 012.16-2.158zm-14.408 0a2.158 2.158 0 100 4.315 2.16 2.16 0 002.162-2.157 2.16 2.16 0 00-2.162-2.158zM7.202 60.691a2.16 2.16 0 012.162-2.158 2.158 2.158 0 110 4.315 2.16 2.16 0 01-2.162-2.157zM38.18 44.149h-.001a2.161 2.161 0 00-2.161 2.157 2.154 2.154 0 002.16 2.159h.002a2.158 2.158 0 100-4.316zm-16.57 2.157a2.16 2.16 0 014.322 0 2.16 2.16 0 01-2.161 2.159 2.159 2.159 0 01-2.16-2.159zM9.365 44.15a2.16 2.16 0 00-2.162 2.157 2.16 2.16 0 002.162 2.159 2.159 2.159 0 100-4.316zm5.043 23.734a2.16 2.16 0 014.322 0 2.16 2.16 0 01-2.163 2.157 2.158 2.158 0 01-2.16-2.157zm16.567-2.158a2.159 2.159 0 100 4.315 2.16 2.16 0 002.16-2.157 2.16 2.16 0 00-2.16-2.158zM14.407 53.5c0-1.192.967-2.158 2.16-2.158a2.16 2.16 0 012.161 2.157 2.16 2.16 0 01-4.321 0zM2.16 51.34A2.159 2.159 0 000 53.498a2.16 2.16 0 002.161 2.159 2.16 2.16 0 002.162-2.158A2.16 2.16 0 002.16 51.34zM38.178 87.3a2.158 2.158 0 110 4.315 2.16 2.16 0 01-2.161-2.158 2.156 2.156 0 012.16-2.157zm0-14.385a2.16 2.16 0 00-1.992 2.999 2.161 2.161 0 001.992 1.317 2.158 2.158 0 100-4.316zM21.61 75.074a2.16 2.16 0 014.322 0 2.16 2.16 0 01-2.162 2.158 2.159 2.159 0 01-2.16-2.158z" fill="#34C3FF"/></svg>
